src/xmb/retrosystem/menu_video.svg

<svg xmlns="http://www.w3.org/2000/svg" xml:space="preserve" width="64" height="64"><path d="M20 20h24v24H20z" style="opacity:.98999999;vector-effect:none;fill:#65a1cb;fill-opacity:1;stroke:#1a1a1a;stroke-width:1;stroke-linecap:butt;stroke-linejoin:miter;stroke-miterlimit:4;stroke-dasharray:none;stroke-dashoffset:0;stroke-opacity:1;paint-order:markers stroke fill"/><path d="M13 18v28h2v-.16c0-.465.375-.84.84-.84h2.32c.465 0 .84.375.84.84V46h26v-.16c0-.465.375-.84.84-.84h2.32c.465 0 .84.375.84.84V46h2V18h-2v.16c0 .465-.375.84-.84.84h-2.32a.84.84 0 0 1-.84-.84V18H19v.16c0 .465-.375.84-.84.84h-2.32a.84.84 0 0 1-.84-.84V18zm3 3h2c.554 0 1 .446 1 1v2c0 .554-.446 1-1 1h-2c-.554 0-1-.446-1-1v-2c0-.554.446-1 1-1zm6 0h20c.554 0 1 .446 1 1v20c0 .554-.446 1-1 1H22c-.554 0-1-.446-1-1V22c0-.554.446-1 1-1zm24 0h2c.554 0 1 .446 1 1v2c0 .554-.446 1-1 1h-2c-.554 0-1-.446-1-1v-2c0-.554.446-1 1-1zm-30 6h2c.554 0 1 .446 1 1v2c0 .554-.446 1-1 1h-2c-.554 0-1-.446-1-1v-2c0-.554.446-1 1-1zm30 0h2c.554 0 1 .446 1 1v2c0 .554-.446 1-1 1h-2c-.554 0-1-.446-1-1v-2c0-.554.446-1 1-1zm-30 6h2c.554 0 1 .446 1 1v2c0 .554-.446 1-1 1h-2c-.554 0-1-.446-1-1v-2c0-.554.446-1 1-1zm30 0h2c.554 0 1 .446 1 1v2c0 .554-.446 1-1 1h-2c-.554 0-1-.446-1-1v-2c0-.554.446-1 1-1zm-30 6h2c.554 0 1 .446 1 1v2c0 .554-.446 1-1 1h-2c-.554 0-1-.446-1-1v-2c0-.554.446-1 1-1zm30 0h2c.554 0 1 .446 1 1v2c0 .554-.446 1-1 1h-2c-.554 0-1-.446-1-1v-2c0-.554.446-1 1-1z" style="fill:#e6e6e6;fill-opacity:1;stroke:#1a1a1a;stroke-width:1;stroke-miterlimit:4;stroke-dasharray:none;stroke-opacity:1;paint-order:markers stroke fill"/><path d="M29 28v8l8-4z" style="fill:#e6e6e6;fill-opacity:1;stroke:#1a1a1a;stroke-width:1;stroke-miterlimit:4;stroke-dasharray:none;paint-order:markers stroke fill"/></svg>

<?xml version="1.0" encoding="UTF-8" standalone="no"?>
<svg
   xmlns:dc="http://purl.org/dc/elements/1.1/"
   xmlns:cc="http://creativecommons.org/ns#"
   xmlns:rdf="http://www.w3.org/1999/02/22-rdf-syntax-ns#"
   xmlns:svg="http://www.w3.org/2000/svg"
   xmlns="http://www.w3.org/2000/svg"
   xmlns:sodipodi="http://sodipodi.sourceforge.net/DTD/sodipodi-0.dtd"
   xmlns:inkscape="http://www.inkscape.org/namespaces/inkscape"
   version="1.1"
   id="Calque_1"
   x="0px"
   y="0px"
   width="64px"
   height="64px"
   viewBox="0 0 64 64"
   enable-background="new 0 0 64 64"
   xml:space="preserve"
   inkscape:version="0.92.3 (2405546, 2018-03-11)"
   sodipodi:docname="menu_video.svg"
   inkscape:export-filename="/home/kivutar/Bureau/retroarch-assets/xmb/monochrome/png/video.png"
   inkscape:export-xdpi="360"
   inkscape:export-ydpi="360"><metadata
     id="metadata8"><rdf:RDF><cc:Work
         rdf:about=""><dc:format>image/svg+xml</dc:format><dc:type
           rdf:resource="http://purl.org/dc/dcmitype/StillImage" /><dc:title /></cc:Work></rdf:RDF></metadata><defs
     id="defs6" /><sodipodi:namedview
     pagecolor="#ffffff"
     bordercolor="#666666"
     borderopacity="1"
     objecttolerance="10"
     gridtolerance="10"
     guidetolerance="10"
     inkscape:pageopacity="0"
     inkscape:pageshadow="2"
     inkscape:window-width="1920"
     inkscape:window-height="1001"
     id="namedview4"
     showgrid="true"
     inkscape:zoom="20.85965"
     inkscape:cx="33.555994"
     inkscape:cy="29.51871"
     inkscape:window-x="-9"
     inkscape:window-y="-9"
     inkscape:window-maximized="1"
     inkscape:current-layer="Calque_1"
     inkscape:snap-smooth-nodes="true"><inkscape:grid
       type="xygrid"
       id="grid2985"
       empspacing="4"
       visible="true"
       enabled="true"
       snapvisiblegridlinesonly="true" /></sodipodi:namedview><rect
     style="opacity:0.98999999;vector-effect:none;fill:#65a1cb;fill-opacity:1;stroke:#1a1a1a;stroke-width:1;stroke-linecap:butt;stroke-linejoin:miter;stroke-miterlimit:4;stroke-dasharray:none;stroke-dashoffset:0;stroke-opacity:1;paint-order:markers stroke fill"
     id="rect850"
     width="24"
     height="24"
     x="20"
     y="20" /><path
     style="fill:#e6e6e6;fill-opacity:1;stroke:#1a1a1a;stroke-width:1;stroke-miterlimit:4;stroke-dasharray:none;stroke-opacity:1;paint-order:markers stroke fill"
     d="M 13 18 L 13 46 L 15 46 L 15 45.839844 C 15 45.374847 15.374847 45 15.839844 45 L 18.160156 45 C 18.625153 45 19 45.374847 19 45.839844 L 19 46 L 45 46 L 45 45.839844 C 45 45.374847 45.374847 45 45.839844 45 L 48.160156 45 C 48.625153 45 49 45.374847 49 45.839844 L 49 46 L 51 46 L 51 18 L 49 18 L 49 18.160156 C 49 18.625153 48.625153 19 48.160156 19 L 45.839844 19 C 45.374847 19 45 18.625153 45 18.160156 L 45 18 L 19 18 L 19 18.160156 C 19 18.625153 18.625153 19 18.160156 19 L 15.839844 19 C 15.374847 19 15 18.625153 15 18.160156 L 15 18 L 13 18 z M 16 21 L 18 21 C 18.554 21 19 21.446 19 22 L 19 24 C 19 24.554 18.554 25 18 25 L 16 25 C 15.446 25 15 24.554 15 24 L 15 22 C 15 21.446 15.446 21 16 21 z M 22 21 L 42 21 C 42.554 21 43 21.446 43 22 L 43 42 C 43 42.554 42.554 43 42 43 L 22 43 C 21.446 43 21 42.554 21 42 L 21 22 C 21 21.446 21.446 21 22 21 z M 46 21 L 48 21 C 48.554 21 49 21.446 49 22 L 49 24 C 49 24.554 48.554 25 48 25 L 46 25 C 45.446 25 45 24.554 45 24 L 45 22 C 45 21.446 45.446 21 46 21 z M 16 27 L 18 27 C 18.554 27 19 27.446 19 28 L 19 30 C 19 30.554 18.554 31 18 31 L 16 31 C 15.446 31 15 30.554 15 30 L 15 28 C 15 27.446 15.446 27 16 27 z M 46 27 L 48 27 C 48.554 27 49 27.446 49 28 L 49 30 C 49 30.554 48.554 31 48 31 L 46 31 C 45.446 31 45 30.554 45 30 L 45 28 C 45 27.446 45.446 27 46 27 z M 16 33 L 18 33 C 18.554 33 19 33.446 19 34 L 19 36 C 19 36.554 18.554 37 18 37 L 16 37 C 15.446 37 15 36.554 15 36 L 15 34 C 15 33.446 15.446 33 16 33 z M 46 33 L 48 33 C 48.554 33 49 33.446 49 34 L 49 36 C 49 36.554 48.554 37 48 37 L 46 37 C 45.446 37 45 36.554 45 36 L 45 34 C 45 33.446 45.446 33 46 33 z M 16 39 L 18 39 C 18.554 39 19 39.446 19 40 L 19 42 C 19 42.554 18.554 43 18 43 L 16 43 C 15.446 43 15 42.554 15 42 L 15 40 C 15 39.446 15.446 39 16 39 z M 46 39 L 48 39 C 48.554 39 49 39.446 49 40 L 49 42 C 49 42.554 48.554 43 48 43 L 46 43 C 45.446 43 45 42.554 45 42 L 45 40 C 45 39.446 45.446 39 46 39 z "
     id="rect4007" /><path
     style="fill:#e6e6e6;fill-opacity:1;stroke:#1a1a1a;stroke-width:1;stroke-miterlimit:4;stroke-dasharray:none;paint-order:markers stroke fill"
     d="M 29 28 L 29 36 L 37 32 L 29 28 z "
     id="rect4007-1" /></svg>
